app/images/about/revenue.svg

<svg xmlns="http://www.w3.org/2000/svg" width="44" height="40"><path fill-rule="evenodd" fill="#A3BBC8" d="M37.869 21.953v7.126a2.18 2.18 0 01-1.051 1.887 2.09 2.09 0 01-1.081.304c-.358 0-.717-.094-1.046-.283-5.96-3.423-12.407-5.52-19.185-6.244l4.159 11.785c.235.663.14 1.406-.255 1.986a2.1 2.1 0 01-1.731.925h-4.858a2.124 2.124 0 01-1.986-1.428l-4.84-13.723a3.34 3.34 0 01-1.919-2.664H2.715c-1.489 0-2.701-1.244-2.701-2.774v-6.096c0-1.529 1.212-2.774 2.701-2.774h1.361c.19-1.658 1.566-2.949 3.231-2.949 0 0 6.628-.03 6.684-.034 7.333-.558 14.298-2.706 20.7-6.383a2.07 2.07 0 012.127.021 2.18 2.18 0 011.052 1.887v7.126c2.964.394 5.262 3.002 5.262 6.152 0 3.151-2.298 5.759-5.263 6.153zM4.052 12.12H2.715a.628.628 0 00-.618.634v6.096c0 .35.278.634.618.634h1.337V12.12zm8.925-2.949h-5.67c-.646 0-1.171.54-1.171 1.203V21.23c0 .489.285.91.693 1.098.151.066.195.077.403.101.025.002 5.745.004 5.745.004V9.171zm.252 15.402H8.31l4.484 12.708c.003.01.015.018.027.018h4.858c.009 0 .015 0 .024-.013.01-.013.007-.019.004-.028l-4.478-12.685zM35.786 2.522c0-.016 0-.028-.022-.041-.026-.016-.043-.007-.056 0-6.403 3.678-13.345 5.885-20.648 6.571V22.55c7.303.684 14.245 2.892 20.648 6.57.013.007.029.016.056 0 .022-.013.022-.026.022-.041V2.522zm2.084 9.291v7.974c1.81-.373 3.179-2.019 3.179-3.987s-1.369-3.614-3.179-3.987z"/></svg>

<svg 
 xmlns="http://www.w3.org/2000/svg"
 xmlns:xlink="http://www.w3.org/1999/xlink"
 width="44px" height="40px">
<path fill-rule="evenodd"  fill="rgb(163, 187, 200)"
 d="M37.869,21.953 L37.869,29.079 C37.869,29.864 37.476,30.569 36.818,30.966 C36.481,31.169 36.109,31.270 35.737,31.270 C35.379,31.270 35.020,31.176 34.691,30.987 C28.731,27.564 22.284,25.467 15.506,24.743 L19.665,36.528 C19.900,37.191 19.805,37.934 19.410,38.514 C19.015,39.093 18.368,39.439 17.679,39.439 L12.821,39.439 C11.936,39.439 11.138,38.865 10.835,38.011 L5.995,24.288 C4.963,23.820 4.213,22.817 4.076,21.624 L2.715,21.624 C1.226,21.624 0.014,20.380 0.014,18.850 L0.014,12.754 C0.014,11.225 1.226,9.980 2.715,9.980 L4.076,9.980 C4.266,8.322 5.642,7.031 7.307,7.031 C7.307,7.031 13.935,7.001 13.991,6.997 C21.324,6.439 28.289,4.291 34.691,0.614 C35.362,0.228 36.157,0.237 36.818,0.635 C37.476,1.032 37.870,1.737 37.870,2.522 L37.870,9.648 C40.834,10.042 43.132,12.650 43.132,15.800 C43.132,18.951 40.834,21.559 37.869,21.953 ZM4.052,12.120 L2.715,12.120 C2.375,12.120 2.097,12.405 2.097,12.754 L2.097,18.850 C2.097,19.200 2.375,19.484 2.715,19.484 L4.052,19.484 L4.052,12.120 ZM12.977,9.171 L7.307,9.171 C6.661,9.171 6.136,9.711 6.136,10.374 L6.136,21.230 C6.136,21.719 6.421,22.140 6.829,22.328 C6.980,22.394 7.024,22.405 7.232,22.429 C7.257,22.431 12.977,22.433 12.977,22.433 L12.977,9.171 ZM13.229,24.573 L8.310,24.573 L12.794,37.281 C12.797,37.291 12.809,37.299 12.821,37.299 L17.679,37.299 C17.688,37.299 17.694,37.299 17.703,37.286 C17.713,37.273 17.710,37.267 17.707,37.258 L13.229,24.573 ZM35.786,2.522 C35.786,2.506 35.786,2.494 35.764,2.481 C35.738,2.465 35.721,2.474 35.708,2.481 C29.305,6.159 22.363,8.366 15.060,9.052 L15.060,22.550 C22.363,23.234 29.305,25.442 35.708,29.120 C35.721,29.127 35.737,29.136 35.764,29.120 C35.786,29.107 35.786,29.094 35.786,29.079 L35.786,2.522 ZM37.870,11.813 L37.870,19.787 C39.680,19.414 41.049,17.768 41.049,15.800 C41.049,13.832 39.680,12.186 37.870,11.813 Z"/>
</svg>
